icons/bhi_notes.svg

<svg xmlns="http://www.w3.org/2000/svg" viewBox="0 0 512 512" enable-background="new 0 0 512 512"><path fill="#010101" d="M64 83.3v330c0 18.7 15 33.7 33.7 33.7h268.3c18.7 0 33.7-15 33.7-33.7v-380c0-18.7-15-33.9-33.7-33.9h-218.1l-83.9 83.9zm56 28h223.8v263.1c0 9.2-7.4 16.6-16.6 16.6h-190.6c-9.2 0-16.6-7.4-16.6-16.6v-263.1zm0-28l56-56v56h-56zM147.9 139.3h167.9v56h-167.9zM147.9 223.2h167.9v56h-167.9zM147.9 307.1h167.9v56h-167.9zM128 479.4v32.6h294.9c39.1 0 43-5.6 43-43v-341.6h-34.2v352h-303.7z"/></svg>

<?xml version="1.0" encoding="utf-8"?>
<!-- Generator: Adobe Illustrator 19.2.0, SVG Export Plug-In . SVG Version: 6.00 Build 0)  -->
<svg version="1.1" id="Layer_1" xmlns="http://www.w3.org/2000/svg" xmlns:xlink="http://www.w3.org/1999/xlink" x="0px" y="0px"
	 viewBox="0 0 512 512" enable-background="new 0 0 512 512" xml:space="preserve">
<path fill="#010101" d="M64,83.3v28v302C64,432,79,447,97.7,447H366c18.7,0,33.7-15,33.7-33.7v-380c0-18.7-15-33.9-33.7-33.9H147.9
	L64,83.3z M120,111.3h223.8v263.1c0,9.2-7.4,16.6-16.6,16.6H136.6c-9.2,0-16.6-7.4-16.6-16.6V111.3z M120,83.3l56-56v56H120z"/>
<rect x="147.9" y="139.3" fill="#010101" width="167.9" height="56"/>
<rect x="147.9" y="223.2" fill="#010101" width="167.9" height="56"/>
<rect x="147.9" y="307.1" fill="#010101" width="167.9" height="56"/>
<path fill="#010101" d="M128,479.4V512h294.9c39.1,0,43-5.6,43-43V127.4h-34.2v352H128z"/>
</svg>
